Newaita-dark/actions/24/filename-filetype-amarok.svg

<svg height="24" viewBox="0 0 24 24" width="24" xmlns="http://www.w3.org/2000/svg"><g fill="#e0e0e0"><path d="m20.808594 2.175781c-.035156.003907-.070313.003907-.105469.011719l-10.914063 1.488281c-.488281.066407-.855468.484375-.855468.976563v10.550781c-.707032-.398437-1.5625-.628906-2.484375-.628906-2.472657 0-4.464844 1.660156-4.464844 3.722656s1.992187 3.722656 4.464844 3.722656c2.472656 0 4.464843-1.660156 4.464843-3.722656 0-.058594 0-.113281-.003906-.171875v-12.609375l8.941406-1.21875v7.429687c-.710937-.394531-1.566406-.625-2.488281-.625-2.472656 0-4.464843 1.660157-4.464843 3.722657s1.992187 3.71875 4.464843 3.71875c2.476563 0 4.46875-1.65625 4.46875-3.71875 0-.058594-.003906-.113281-.007812-.171875v-11.488282c0-.265624-.105469-.523437-.296875-.707031-.191406-.1875-.453125-.289062-.71875-.28125zm-3.445313 10.910157c1.375 0 2.480469.777343 2.480469 1.738281 0 .960937-1.105469 1.734375-2.480469 1.734375-1.371093 0-2.480469-.773438-2.480469-1.734375 0-.960938 1.109376-1.738281 2.480469-1.738281zm-10.914062 3.472656c1.375 0 2.480469.777344 2.480469 1.738281s-1.105469 1.734375-2.480469 1.734375-2.480469-.773438-2.480469-1.734375 1.105469-1.738281 2.480469-1.738281zm0 0"/><path d="m21.335938 6.734375-11.792969 1.390625.117187.984375 11.675782-1.375zm0 0"/></g></svg>

<svg xmlns="http://www.w3.org/2000/svg" xmlns:xlink="http://www.w3.org/1999/xlink" width="24px" height="24px" viewBox="0 0 24 24" version="1.1">
<g id="surface1">
     <defs>
  <style id="current-color-scheme" type="text/css">
   .ColorScheme-Text { color:#eeeeee; } .ColorScheme-Highlight { color:#424242; }
  </style>
 </defs>
<path style="fill:currentColor" class="ColorScheme-Text" d="M 20.808594 2.175781 C 20.773438 2.179688 20.738281 2.179688 20.703125 2.1875 L 9.789062 3.675781 C 9.300781 3.742188 8.933594 4.160156 8.933594 4.652344 L 8.933594 15.203125 C 8.226562 14.804688 7.371094 14.574219 6.449219 14.574219 C 3.976562 14.574219 1.984375 16.234375 1.984375 18.296875 C 1.984375 20.359375 3.976562 22.019531 6.449219 22.019531 C 8.921875 22.019531 10.914062 20.359375 10.914062 18.296875 C 10.914062 18.238281 10.914062 18.183594 10.910156 18.125 L 10.910156 5.515625 L 19.851562 4.296875 L 19.851562 11.726562 C 19.140625 11.332031 18.285156 11.101562 17.363281 11.101562 C 14.890625 11.101562 12.898438 12.761719 12.898438 14.824219 C 12.898438 16.886719 14.890625 18.542969 17.363281 18.542969 C 19.839844 18.542969 21.832031 16.886719 21.832031 14.824219 C 21.832031 14.765625 21.828125 14.710938 21.824219 14.652344 L 21.824219 3.164062 C 21.824219 2.898438 21.71875 2.640625 21.527344 2.457031 C 21.335938 2.269531 21.074219 2.167969 20.808594 2.175781 Z M 17.363281 13.085938 C 18.738281 13.085938 19.84375 13.863281 19.84375 14.824219 C 19.84375 15.785156 18.738281 16.558594 17.363281 16.558594 C 15.992188 16.558594 14.882812 15.785156 14.882812 14.824219 C 14.882812 13.863281 15.992188 13.085938 17.363281 13.085938 Z M 6.449219 16.558594 C 7.824219 16.558594 8.929688 17.335938 8.929688 18.296875 C 8.929688 19.257812 7.824219 20.03125 6.449219 20.03125 C 5.074219 20.03125 3.96875 19.257812 3.96875 18.296875 C 3.96875 17.335938 5.074219 16.558594 6.449219 16.558594 Z M 6.449219 16.558594 "/>
     <defs>
  <style id="current-color-scheme" type="text/css">
   .ColorScheme-Text { color:#eeeeee; } .ColorScheme-Highlight { color:#424242; }
  </style>
 </defs>
<path style="fill:currentColor" class="ColorScheme-Text" d="M 21.335938 6.734375 L 9.542969 8.125 L 9.660156 9.109375 L 21.335938 7.734375 Z M 21.335938 6.734375 "/>
</g>
</svg>
